X:1
T:Khvalitye imya Gospodie
T:Сергeй Рахманинов, 1915
T:Attributed to John Chrysostom, c. 349-407 AD
T:Слава Отцу и Единородний
T:Литургиа Святого Иоанна Златоуста , Op. 31, No. 3
T:Public Domain
T:Public Domain
T:Public Domain
T:Public Domain
T:Public Domain
T:Public Domain
C:Sergei Rakhmanninov
Z:Public Domain
%%score [ 1 ( 2 3 ) ( 4 5 ) ( 6 7 ) ]
L:1/8
Q:1/4=140
M:2/2
K:F
V:1 treble nm="Сопрано" snm="С."
V:2 treble nm="Альт" snm="А."
V:3 treble 
V:4 treble-8 nm="Тенор" snm="Т."
V:5 treble-8 
V:6 bass nm="Бас" snm="Б."
V:7 bass 
V:1
"^Оживленно\nLively"!f!"^Сла–ва От–цу         и       Сы– ну               и  Свя-то –  му        Ду –  ху,         и           ны – не      и   прис-но""^Sla –va  Ot–tsu         i         Sui– nu               i   Svya-to –  mu       Du – khu,        i            nui – nye     i    pris –no" f4 f2 f2 | %1
 [df]6 f2 | e4!>(! [ce]4-!>)! | [ce]2!mf! cc c3 c |[M:6/4]!>(! !tenuto!d4 A4-!<(! A2 A2!>)!!<)! | %5
[M:2/2]!>(! !tenuto!c4 G2 z!<(! G!>)!!<)! |!>(! !tenuto!B4 F4!>)! | %7
 z2!p!"^замедляя\nslowing"[Q:1/4=130]"^i           vo     ve   –    ki     ve  –  kov.          A  –  min'.                   Ye– di –no–rod  –  nii       Sui  – ne             i    Slo –ve""^и          во     ве   –    ки   ве  –  ков.         А  –  минь.                  Е– ди–но–род – ний    Сы  – не             и  Сло–ве" F4 G2 | %8
!<(! (A2 B2)!>(! A2 G2!<)!!>)! |[Q:1/4=120] G6 F2 |!pp! !fermata!F8 | %11
[M:4/4]"^Бодрым и живым темпом\nWith a cheerful and lively tempo"[Q:1/4=150]!ff! z [df][df][^ce] !tenuto![=Bd]3 [ce] | %12
 !tenuto![^ce]2 [ce]2- [ce][df][df][ce] | %13
"^Bo    –   zhii,   bez–smer–ten  sui,                                                     bez    –     smer  –   ten       sui,                       i               iz  –""^Бо    –   жий, без–смер-тен суй,                                                   без    –     смер  –  тен     суй,                      и             из –" ((!tenuto![=Bd]3 [^ce])) [ce]2 !>!A2 | %14
 !>!d2 !>!=B2 !>!A4- |!>(! A6!p!"^задерживая\nslowing"[Q:1/4=120] G2!>)! |[Q:1/4=100] A6 A2 | %17
[Q:1/4=90] A8 | z2"^медленнее\nslower"[Q:1/4=80]!p! (A2 G2)!<(! A2!<)! | %19
"^– во –ли-вый спа–се – ни–я   на– ше–го       ра– ди,         во–пло–ти  –  ти–ся   оть Свя –ты     –     я      Бо–го –""^– vo – li – vui   spa –se – ni –ya  na–she–vo       ra –  di,          vo–plo – ti    –   ti –sya  ot'  Svya –tui     –    ya     Bo–go–"!>(! !tenuto!B3 A A3 B!>)! | %20
"^уокоряя и усмливая звук\naccelerate and intensify"[Q:1/4=100]!mf! !tenuto!c2 AA !tenuto!d2 BB | %21
[Q:1/4=110] !>!e2 A2 z2"^Прежний темп\nPrevious tempo"[Q:1/4=120]!ff! [df][^ce] | %22
 !tenuto![=Bd]3 [^ce] [ce]2 [df][ce] | (([=Bd]3 [^ce])) [ce]2 AA | %24
"^–ро –ди–цы,                                         и  При-сно-де    –     вы                                                       Ма  –  ри – и,                не-пре–""^–ro – di –tsui,                                         i    Pri –sno-de     –    vui                                                        Ma  –  ri   –  i,                ne–pre–" !>!d2 !>!=B2 !>!A4- | %25
!>(! A4- A!mf!GGG!>)! | (!tenuto!c2 F2) G4- | G6 G2 |!p! A4 A4- | A2 z2!f! !tenuto!A2 !tenuto!G2 | %30
"^–лож-но            во–че–ло – ве  – чи-вый-ся,                     расп-ный – ся же,  Хри-сте   Бо   –  же,         смер-ти-ю""^–lozh-no            vo-che–lo – vye –chi-vuii-sya,                    rasp–nuii –sya zhe, Khri–ste    Bo   – zhe,        smer–ti–yu" !tenuto!A4 !tenuto!A4- | %31
 A2 A2 A2 G2 | !tenuto!A4!>(! A2 G2!>)! |!p! A4- A z !>!A2 |!ff! !>!g3 A A2 AA | %35
 !>!f2 A2- A!>(!AAA!>)! | %36
"^смерть по-пра-вый,              е–динь      сый    Свя-ты-я       Тро – и– цы, сро-сла-вля-е-мый От–цу       и  Свя –""^smert'    po-pra–vuii,               ye-din'         sui     Svya-tui-ya     Tro –  i – tsui, sro–sla-vlya-ye-muii Ot-tsu       i  Svya –" !>!e3 ^G A2 A2 | %37
[M:2/4] z2"^постепенно олабляя звучность\ngradually decrease intensity" AA | %38
[M:4/4]!mf! _e3 A A2 A2 |!mp! !tenuto!d3 A A2 AA | !tenuto!c3 A A2 A2 |!p! B4!<(! B2 B2!<)! | %42
"^–то –му      Ду–ху,               спа  –  си                                                                                                нас.             Го – спо–ди, по–""^– to –mu     Du-khu,              spa  –   si                                                                                                 nas.              Go – spo–di,   po–"!>(! G6 G2!>)! | %43
 A4 A4- | A4 z2!p! A2 | A8- | A8- |!>(! A8-!>)! | A8 |!pp! !fermata!A8 |: %50
[M:6/8]"^Умепенный темп\nModerate tempo"[Q:1/8=100]!p! F2 E!<(! D2 E!<)! | %51
"^–ми     –     лый.                         Те  –  бе,       Го      –     спо–ди.                      А    –    минь,                         А     –    минь.""^– mi     –     luii.                            Te  – bye,     Go     –      spo–di.                        A    –    min',                           A     –     min'."!>(! !tenuto!FEF !fermata!F3!>)! :| %52
[M:9/8] z z E!<(! F6!<)! |!>(! (!tenuto!G3 G2) E !fermata!E3!>)! | z2 z!p! D6 | E6- E3 | %56
 z2 z!p! G6 | A6- A3 |] %58
V:2
!f! A4 c2 A2 | A6 d2 | c4!>(! G4-!>)! | G2!mf! AA A3 [EA] | %4
[M:6/4]!>(! !tenuto!F4 F4-!<(! F2 F2!>)!!<)! |[M:2/2]!>(! _E4 E2 z!<(! E!>)!!<)! | %6
!>(! !tenuto!D4 D4!>)! | z2!p! D4 E2 |!<(! (F2 G2)!>(! F2 E2!<)!!>)! | E6 D2 |!pp! !fermata!D8 | %11
[M:4/4]!ff! z AAA !tenuto!A3 A | !tenuto!A2 A2- AAAA | !tenuto!A4 A2 !>!E2 | %14
 !>!A2 !>!^G2 !>!A2"^bez-smer-ten,   bez-smer-ten,  bez-smer –  ten        sui,""^без-смер-тен, без-смер-тен, без-смер– тен      суй," F2 | %15
!>(! !tenuto!G2 EE !tenuto!F2!p! DD!>)! | ^C6 C2 | ^C8 | z2!p! (^C2 D2)!<(! [DF]2!<)! | %19
 !tenuto![DG]3!>(! [DF] [DF]3 G!>)! |!mf! !tenuto!G2 FF !tenuto!A2 GG | !>!=B2 A2 z2!ff! AA | %22
 !tenuto!A3 A A2 AA | !tenuto!A4 A2 EE | %24
"^–ро-ди-цы, Бо–го–ро – ди-цы  и  При-сно-де    –     вы                                                       Ма  –  ри – и,                не-пре–""^–ro–di–tsui, Bo-go–ro  – di–tsui  i   Pri – sno-de     –    vui                                                       Ma   –  ri   –  i,                ne–pre–" !>!A2 !>!^G2 !>!A2 FF | %25
!>(! !tenuto!G2 E2 F!mf![DE][DE][DE]!>)! | (!tenuto!F2 C2) D4- | D6 D2 |!p! ^C4 C4- | %29
 C2 z2!f! !tenuto!F2 !tenuto!D2 | !tenuto!F4 !tenuto!F4- | F2 F2 F2 D2 | !tenuto!F4!>(! F2 D2!>)! | %33
!p! E4- E z !>!A2 |!ff! !>!B3 [EA] [EA]2 AA | !>!A2 [EA]2- [EA]!>(!AAA!>)! | !>!^G3 E E2 E2 | %37
[M:2/4] z2 [EA][EA] |[M:4/4]!mf! !tenuto![_EB]3 D D2 [DA]2 |!mp! !tenuto![D^G]3 [DA] [DA]2 DD | %40
 !tenuto![C_E]3 D D2 [DF]2 |!p! D4!<(! D2 D2!<)! | %42
"^–то –му      Ду–ху,               спа     –     си            нас,           спа   –   си                                     нас.             Го – спо–ди, по–""^– to –mu     Du-khu,              spa     –       si             nas,           spa    –   si                                       nas.             Go – spo–di,   po–"!>(! _E6 D2!>)! | %43
 ^C4 C4- | C4!mf! z2 !tenuto!D2- | D2 !tenuto!C4 !tenuto!D2- | D2 !tenuto!A,4 !tenuto!C2- | %47
!>(! (C6 D2!>)! | E8) |!pp! !fermata!D8 |:[M:6/8]!p! D2 ^C!<(! =B,2 C!<)! | %51
!>(! !tenuto!D^CD !fermata!D3!>)! :|[M:9/8] z z A,!<(! A,6!<)! | %53
!>(! !tenuto!C3- C2 C !fermata!C3!>)! | z2 z!p! =B,6 | C6- C3 | z2 z!p! D6 | ^C6- C3 |] %58
V:3
 x8 | x8 | x8 | x8 |[M:6/4] x12 |[M:2/2] x8 | x8 | x8 | x8 | x8 | x8 |[M:4/4] x8 | x8 | x8 | x8 | %15
 x8 | x8 | x8 | x8 | x8 | x8 | x8 | x8 | x8 | x8 | x8 | %26
 C4 D"^и При-сно  –   де  –   вы""^i   Pri– sno  –    de  –  vui"B,B,B, | (C2 A,2) B,4 | x8 | x8 | %30
 x8 | x8 | x8 | x8 | x8 | x8 | x8 |[M:2/4] x4 |[M:4/4] x8 | x8 | x8 | x8 | x8 | x8 | x8 | x8 | x8 | %47
 x8 | x8 | x8 |:[M:6/8] x6 | x6 :|[M:9/8] x9 | x9 | x9 | x9 | x9 | x9 |] %58
V:4
!f!"^Сла–ва От–цу         и       Сы– ну               и  Свя-то –  му        Ду –  ху,         и           ны – не      и   прис-но""^Sla –va  Ot–tsu         i         Sui– nu               i   Svya-to –  mu       Du – khu,        i            nui – nye     i    pris –no" c4 c2 f2 | %1
 f6 g2 | g4!>(! e4-!>)! | e2!mf! ee e3 A |[M:6/4]!>(! !tenuto![Ad]4 c4-!<(! c2 c2!>)!!<)! | %5
[M:2/2]!>(! !tenuto![Gc]4 B2 z!<(! B!>)!!<)! |!>(! !tenuto![FB]4 A4!>)! | %7
 z2!p!"^и          во     ве   –    ки   ве  –  ков.         А  –  минь.                  Е– ди–но–род – ний    Сы  – не             и  Сло–ве""^i           vo     ve   –    ki     ve  –  kov.          A  –  min'.                   Ye– di –no–rod  –  nii       Sui  – ne             i    Slo –ve" A4 c2 | %8
!<(! (c2 d2) c2!>(! c2!<)!!>)! | (c4 B2) A2 |!pp! !fermata!A8 | %11
[M:4/4]!ff! z [df][df][^ce] !tenuto!d3 [ce] | !tenuto![^ce]2 [ce]2- [ce][df][df][ce] | %13
"^Бо    –   жий, без–смер-тен суй,                                                   без    –     смер  –  тен     суй,                      и             из –""^Bo    –   zhii,   bez–smer–ten  sui,                                                     bez    –     smer  –   ten       sui,                       i               iz  –" ((!tenuto!d3 [^ce])) [ce]2 !>!c2 | %14
 !>!d2 !>!d2 (!>!d2 A2 |!>(! A6)!p! G2!>)! | [EA]6 [EA]2 | [EA]8 | z2!p! (E2 G2)!<(! A2!<)! | %19
"^– во –ли-вый спа–се – ни–я   на– ше–го       ра– ди,         во–пло–ти  –  ти–ся   оть Свя –ты     –     я      Бо–го –""^– vo – li – vui   spa –se – ni –ya  na–she–vo       ra –  di,          vo–plo – ti    –   ti –sya  ot'  Svya –tui     –    ya     Bo–go–" !tenuto!B3!>(! A A3 d!>)! | %20
!mf! !tenuto!c2 cc !tenuto!d2 dd | !>![de]2 ^c2 z2!ff! [df][ce] | !tenuto!d3 [^ce] [ce]2 [df][ce] | %23
 ((!tenuto!d3 [^ce])) [ce]2 cc | %24
"^–ро –ди–цы,                                         и  При-сно-де    –                                                                  Ма  –  ри – и,                не-пре–""^–ro – di –tsui,                                         i    Pri –sno-de    –                                                                  Ma  –  ri   –  i,                 ne–pre–" !>!d2 !>!d2 (!>!d2 A2-) | %25
!>(! A4- A!mf!GGG!>)! | (!tenuto!A2 F2)"^вы""^vui" GBBB | (c2 A2) B2 D2 |!p! [EA]4 [EA]4- | %29
 [EA]2 z2!f! !tenuto!A2 !tenuto!G2 | %30
"^–лож-но            во–че–ло – ве  – чи-вый-ся,                     расп-ный – ся же,  Хри-сте   Бо   –  же,         смер-ти-ю""^–lozh-no            vo-che–lo – vye –chi-vuii-sya,                    rasp–nuii –sya zhe, Khri–ste    Bo   – zhe,        smer–ti–yu" !tenuto!A4 !tenuto!A4- | %31
 A2 A2 A2 G2 | !tenuto!A4!>(! A2 G2!>)! |!p! A4- A z!ff! !>![^ce]2 | !>!g3 ^c c2 [ce][ce] | %35
 [cf]2 ^c2- c!>(![ce][ce][ce]!>)! | %36
"^смерть по-пра-вый,              е–динь      сый    Свя-ты-я       Тро – и– цы, сро-сла-вля-е-мый От–цу       и  Свя –""^smert'    po-pra–vuii,               ye-din'         sui     Svya-tui-ya     Tro –  i – tsui, sro–sla-vlya-ye-muii Ot-tsu       i  Svya –" !>![=Bd]3 d ^c2 c2 | %37
[M:2/4] z2 AA |[M:4/4]!mf! !tenuto!B3 A A2 A2 |!mp! !tenuto!^G3 A A2 FF | %40
 !tenuto![_EG]3 F F2 [FA]2 |!p! [FB]4!<(! [FA]2 [F_A]2!<)! | %42
"^–то –му      Ду–ху,               спа  –  си                                                                                                нас.             Го – спо–ди, по–""^– to –mu     Du-khu,              spa  –   si                                                                                                 nas.              Go – spo–di,   po–"!>(! G6 [FG]2!>)! | %43
 [EA]4 [EA]4- | [EA]4 z2!p! A2 | A8- | A8- |!>(! A8-!>)! | A8 |!pp! !fermata!A8 |: %50
[M:6/8]!p! A2 A!<(! A2 A!<)! | %51
"^–ми     –     лый.                         Те  –  бе,       Го      –     спо–ди.                      А    –    минь,                         А     –    минь.""^– mi     –     luii.                            Te  – bye,     Go     –      spo–di.                        A    –    min',                           A      –    min'."!>(! !tenuto!B3 !fermata!A3!>)! :| %52
[M:9/8] z z ^c!<(! d6!<)! |!>(! !tenuto!G3- G2 G !fermata!G3!>)! | z2 z!p! G6 | G6- G3 | %56
 z2 z!p! G6 | E6- E3 |] %58
V:5
 x8 | x8 | x8 | x8 |[M:6/4] x12 |[M:2/2] x8 | x8 | x8 | x8 | x8 | x8 |[M:4/4] x8 | x8 | x8 | %14
 x4 (A4 | A6) G2 | x8 | x8 | x8 | x8 | x8 | x8 | x8 | x8 | z4 A4 | x8 | x4 D4- | D6 x2 | x8 | x8 | %30
 x8 | x8 | x8 | x8 | x8 | x8 | x8 |[M:2/4] x4 |[M:4/4] x8 | x8 | x8 | x8 | x8 | x8 | x8 | x8 | x8 | %47
 x8 | x8 | x8 |:[M:6/8] x6 | x6 :|[M:9/8] x9 | x9 | x9 | x9 | x9 | x9 |] %58
V:6
!f! F,4 A,2 C2 | D6 =B,2 | C4!>(! C4-!>)! | C2!mf! A,A, A,3 A, | %4
[M:6/4]!>(! !tenuto!D,4 F,4-!<(! F,2 F,2!>)!!<)! |[M:2/2]!>(! !tenuto!C,4 E,2 z!<(! E,!>)!!<)! | %6
!>(! !tenuto!B,,4 D,4!>)! | z2!p! (D,2 C,2) B,,2 |!<(! (A,,2 G,,2)!>(! A,,2 C,2!<)!!>)! | %9
 C,6 [D,,D,]2 |!pp! !fermata![D,,D,]8 |[M:4/4]!ff! z DDA, !tenuto![F,A,]3 A, | %12
 !tenuto!A,2 A,2- A,DDA, | !tenuto!A,4 A,2 !>!G,2 | %14
 !>!F,2 !>!E,2 !>!F,2"^bez-smer-ten,   bez-smer-ten,  bez-smer –  ten        sui,""^без-смер-тен, без-смер-тен, без-смер– тен      суй," D,2 | %15
!>(! !tenuto!E,2 C,C, !tenuto!D,2!p! B,,B,,!>)! | A,,6 A,,2 | A,,8 | %18
 z2!p! (A,,2 B,,2)!<(! D,2!<)! | !tenuto!G,3!>(! D, D,3 G,!>)! |!mf! !tenuto!E,2 F,F, ^F,2 G,G, | %21
 !>!^G,2 A,2 z2!ff! DA, | !tenuto![F,A,]3 A, A,2 DA, | !tenuto!A,4 A,2 G,G, | %24
"^–ро-ди-цы, Бо–го–ро – ди-цы  и  При-сно-де    –     вы                                                       Ма  –  ри – и,                не-пре–""^–ro–di–tsui, Bo-go–ro  – di–tsui  i   Pri – sno-de     –    vui                                                       Ma   –  ri   –  i,                ne–pre–" !>!F,2 !>!E,2 !>!F,2 D,D, | %25
!>(! !tenuto!E,2 C,2 D,!mf!B,,B,,B,,!>)! | %26
 (!tenuto!C,2 A,,2) B,,"^и При-сно–де    –     вы""^i   Pri– sno –de    –     vui"G,,G,,G,, | %27
 (A,,2 F,,2) G,,2 B,,2 |!p! A,,4 A,,4- | A,,2 z2!f! !tenuto![F,,C,]2 !tenuto![B,,D,]2 | %30
 !tenuto![F,,C,]4 !tenuto![F,,C,]4- | [F,,C,]2 [F,,C,]2 [F,,C,]2 [B,,D,]2 | %32
 !tenuto![F,,C,]4!>(! [F,,C,]2 [B,,D,]2!>)! |!p! [A,,E,]4- [A,,E,] z !>!A,2 | %34
!ff! !>!D3 A, A,2 A,A, | !>!F,2 A,2- A,!>(!A,A,A,!>)! | !>!E,3 E, A,2 A,2 |[M:2/4] z2 A,A, | %38
[M:4/4]!mf! !tenuto!G,3 ^F, F,2 [D,F,]2 |!mp! !tenuto![B,,F,]3 [D,F,] [D,F,]2 D,D, | %40
 !tenuto!A,,3 D, D,2 D,2 |!p! B,,4!<(! B,,2 B,,2!<)! | %42
"^–то –му      Ду–ху,               спа –   си         нас, спа –  си          нас, спа– си                      нас.             Го – спо–ди,  по–""^– to –mu     Du-khu,              spa  –   si          nas,   spa –  si            nas,  spa – si                       nas.              Go – spo–di,   po–"!>(! _E,6 B,,2!>)! | %43
 A,,4 A,,4- | A,,4 z2!pp! [D,F,][A,,E,] | (!tenuto![A,,E,]2 [F,,D,][A,,E,]) [D,F,]2 [D,F,][A,,E,] | %46
 (!tenuto![A,,E,]2 [F,,D,][A,,E,]) [D,F,]2 [D,F,][A,,E,] |!>(! (([A,,E,]6 [B,,D,]2!>)! | %48
 [A,,E,]8)) |!pp! !fermata![D,,A,,D,]8 |:[M:6/8]!p! D,2 A,,!<(! F,,2 A,,!<)! | %51
!>(! !tenuto!D,A,,D, !fermata!D,3!>)! :|[M:9/8] z z A,,!<(! D,6!<)! | %53
!>(! !tenuto!E,3- E,2 C, !fermata!C,3!>)! | z2 z!p! G,,6 | C,6- C,3 | z2 z!p! B,,6 | A,,6- A,,3 |] %58
V:7
 x8 | x8 | x8 | x8 |[M:6/4] x12 |[M:2/2] x8 | x8 | x8 | x8 | x8 | x8 |[M:4/4] x8 | x8 | %13
 (F,3 A,) x4 | x8 | x8 | x8 | x8 | x8 | x8 | x8 | x8 | x8 | (!tenuto!F,3 A,) x4 | x8 | x8 | x8 | %27
 x8 | x8 | x8 | x8 | x8 | x8 | x8 | x8 | x8 | x8 |[M:2/4] x4 |[M:4/4] x8 | x8 | x8 | x8 | x8 | x8 | %44
 x8 | x8 | x8 | x8 | x8 | x8 |:[M:6/8] x6 | x6 :|[M:9/8] x9 | x9 | x9 | x9 | x9 | x9 |] %58

